X: 1
T: OCCIDENTAL -- HORNPIPE
B: Ryan's Mammoth Collection of Fiddle Tunes
R: hornpipe
M: 2/4
L: 1/16
Z: Contributed 20010912191821 by John Chambers jmchambers:rcn.net
K: G
uD2 \
| GFGA GDB,D | GgdB GABG | cAed cBAG | FdcF DFAF |
| GFGA GDB,D | GgdB GABG | cAec BAGF | G2G2G2 :|
|: ud2 \
| .g2.g2 fd^cd | a2(ag) fd^cd | c'afd cABG | FdAF .D2(3DEF |
| .G2.G2 ECB,C | .A2(AG) FD^CD | gdcB AdFA | G2G2G2 :|
